X: 1268
T: Koçyiğitler
C: Sadettin Kaynak
O: Turkey
F: http://compmusic.upf.edu/node/140
N: karcigar--sarki--duyek--kocyigitler--sadettin_kaynak
N: makam= karcigar
N: form= sarki
N: usul= duyek = 8/4
M: 8/4
L: 1/16
K: C _2/4B _3/4e ^3/4f 
Q: 1/4=60
%%MIDI tuningsystem comma53
z2 _1/4Bc d2 d2 d_7/8e ^fd ec d2  | \
w:   | 
dg ^f_7/8e d2 de dc _1/4Bc d4  | 
w:   | 
z2 _1/4Bc d2 d2 d_7/8e ^fd ec d2  | \
w:   | 
dg ^f_7/8e d2 de dc _1/4Bc d4  | 
w:   | 
g^f ga _b4 ba gf g4  | =f=e fg a4 gf ed c4  | \
w:   |   | 
=f=e fe d4 ed ed c4  | 
w:   | 
g^f _7/8ed c_1/4B AG A2 B2 c2 d2  | \
w:   | 
g^f _7/8ed c_1/4B BA A2 G2 A4  | 
w:   | 
z2 d4 ^f2 _7/8e4 d4  | c2 _1/4B2 A2 G2 c2 Bc d4  | \
w:   |   | 
z2 d4 ^f2 _7/8e4 d4  | c2 _1/4B2 A2 G2 c2 Bc d4  | 
w:   |   | 
z4 g2 g2 g4 g4  | g2 g^f _7/8e2 g2 f2 fe d4  | \
w:   |   | 
z4 d2 _7/8e2 e4 ed c2  | 
w:   | 
d2 ^f2 _7/8e2 d2 dc c_1/4B c4  | c3d _7/8e2 d2 c2 z2 g2 g2  | \
w:   |   | 
c3d _7/8e2 d2 c2 z2 g2 g2  | 
w:   | 
c3d _7/8e2 d2 c2 z2 a4  | g2 ^f2 _7/8e2 d2 gf ed c_1/4B AG  | \
w:   |   | 
A2 _1/4B2 c2 d2 cB BA A4  | 
w:   | 
A8 A_1/4B cd =ed e2  | zd2=e e2 e2 ed dc d2 e2  | \
w:   |   | 
A_1/4B cd =ed e2 d3e e2 e2  | 
w:   | 
=ed dc d2 e2 A_1/4B cd e^f ga  | g8 g^f gf gf ga  | 
w:   |   | 
=e8 =fe fe fe fg  | d8 _7/8ed ed ed c_1/4B  | \
w:   |   | 
cd _7/8e^f gf g2 z4 g2 g2  | 
w:   | 
g4 g4 g2 g^f _7/8e2 g2  | ^f2 f_7/8e d4 z4 d2 e2  | \
w:   |   | 
_7/8e4 ed c2 d2 ^f2 e2 d2  | 
w:   | 
dc c_1/4B c4 c3d _7/8e2 d2  | c4 g2 g2 c3d _7/8e2 d2  | \
w:   |   | 
c4 g2 g2 c3d _7/8e2 d2  | 
w:   | 
c4 a4 g2 ^f2 _7/8e2 d2  | g^f _7/8ed c_1/4B AG A2 B2 c2 d2  | \
w:   |   | 
c_1/4B BA A4 A8  | 
w:   | 
GA _1/4Bc d=e ^fg a8  | a_1/4b c'b c'b c'a b8  | \
w:   |   | 
_1/4ba ba ba bg a8  | 
w:   | 
z2 g4 a2 a4 a4  | a2 c'2 _1/4b2 a2 g2 ^f^e f4  | \
w:   |   | 
z2 =e4 ^f2 g4 a4  | g2 =f2 =e2 d2 c4 d4  | 
w:   |   | 
z4 g2 g2 g4 g4  | g2 g^f _7/8e2 g2 f2 fe d4  | \
w:   |   | 
z4 d2 _7/8e2 e4 ed c2  | 
w:   | 
d2 ^f2 _7/8e2 d2 dc c_1/4B c4  | c3d _7/8e2 d2 c4 g2 g2  | \
w:   |   | 
c3d _7/8e2 d2 c4 g2 g2  | 
w:   | 
c3d _7/8e2 d2 c2 z2 a4  | g2 ^f2 _7/8e2 d2 gf ed c_1/4B AG  | \
w:   |   | 
A2 _1/4B2 c2 d2 cB BA A4  | 
w:   | 
A8 A8  | |


